!!!!SEGMENT: pl-wumfc--n48093_joteyko-tadeusz--przed-noca-op-2-no-5-ponad-szczytami.krn
!!!cenid: 19xx:121
!!!COM: Joteyko, Tadeusz
!!!COM-rismID: pe50046072
!!!CDT: 1872-1932
!!!CNT: Polish
!!!OTL: Przed nocą Op. 2 No. 5/Ponad szczytami
!!!PDT:
!!!AGN: Secular; Song
!!!YEC: Copyright 2022 Narodowy Instytut Fryderyka Chopina (https://polishscores.org)
!!!YEM: License CC-BY-4.0 (https://creativecommons.org/licenses/by/4.0)
!!!SMS-siglum: PL-Wumfc
!!!SMS-shelfmark: N48093
!!!SMS-variant:
!!!SMS-altvar:
!!!SMS-shelfwork: W
!!!NIFC-rismSourceID: 1001177918
!!!NIFC-rismChildID: 1001177918
!!!NIFC-islandoraID: pl-wumfc:8067
!!!URL-pdf-islandora: https://repozytorium.nifc.pl/islandora/object/pl-wumfc%3A8067/datastream/PDF/view
!!!URL-scan: https://polish.musicsources.pl/pl/lokalizacje/galeria/druki-muzyczne/12522/2 @EN{Scan on Polish Music Sources Website} @PL{Skany w portalu Dziedzictwo Muzyki Polskiej w otwartym dostępie}
!!!IIIF:
!!!ONB-nifc: UWAGA: proszę skorzystać z linka URL pdf-islandora w przypadku błędu na polish.musicsources.pl
!!!OMD: Grave.
!!!AIN: 1 piano 1 vox
!!!key: G-
**kern	**kern	**dynam	**kern	**text	**dynam
*part2	*part2	*part2	*part1	*part1	*part1
*staff3	*staff2	*	*staff1	*staff1	*
*ICklav	*ICklav	*	*ICvox	*	*
*Ipiano	*Ipiano	*	*Ivox	*	*
*I"Fortepian.	*I"Fortepian.	*	*I"Śpiew.	*	*
*clefF4	*clefG2	*	*clefG2	*	*
*k[b-e-a-d-g-c-]	*k[b-e-a-d-g-c-]	*	*k[b-e-a-d-g-c-]	*	*
*G-:	*G-:	*	*G-:	*	*
*M6/4	*M6/4	*	*M6/4	*	*
=1	=1	=1	=1	=1	=1
!	!LO:TX:a:B:t=Grave.	!	!	!	!
(>4d-'>/	(>4dd-'>/	ppp	1.r	.	.
4d-'>/	4dd-'>/	.	.	.	.
4d-'>/	4dd-'>/	.	.	.	.
4d-'>/	4dd-'>/	.	.	.	.
4d-'>/	4dd-'>/	.	.	.	.
4d-'>/)	4dd-'>/)	.	.	.	.
=2	=2	=2	=2	=2	=2
*^	*	*	*	*	*
(4d-'/	(1.c-	(>4dd-'>/	.	1.r	.	.
4d-'/	.	4dd-'>/	.	.	.	.
4d-'/	.	4dd-'>/	.	.	.	.
4d-'/	.	4dd-'>/	.	.	.	.
4d-'/	.	4dd-'>/	.	.	.	.
4d-'/)	.	4dd-'>/)	.	.	.	.
=3	=3	=3	=3	=3	=3	=3
*	*	*^	*	*	*	*
!	!	!LO:TX:a:i:t=simile	!	!	!	!	!
4d-/	(2.B-\)	4dd-/	(2.e-\	<	1.r	.	.
4d-/	.	4dd-/	.	.	.	.	.
4d-/	.	4dd-/	.	.	.	.	.
4d-/	2.B--\)	4dd-/	2.en\) 2.ccn	.	.	.	.
4d-/	.	4dd-/	.	[	.	.	.
4d-/	.	4dd-/	.	.	.	.	.
!!LO:LB:g=original
=4	=4	=4	=4	=4	=4	=4	=4
4d-/	[1.A-	4dd-/	[1.f [1.cc-X	>	1.r	.	.
4d-/	.	4dd-/	.	.	.	.	.
4d-/	.	4dd-/	.	.	.	.	.
4d-/	.	4dd-/	.	.	.	.	.
4d-/	.	4dd-/	.	.	.	.	.
4d-/	.	4dd-/	.	]	.	.	.
=5	=5	=5	=5	=5	=5	=5	=5
!	!	!	!	!	!LO:TX:a:i:t=sotto voce	!	!LO:DY:a
4d-/	1.A-]	4dd-/	1.f] 1.cc-]	pp	2.dd-\	Po-	pp
4d-/	.	4dd-/	.	.	.	.	.
4d-/	.	4dd-/	.	.	.	.	.
4d-/	.	4dd-/	.	.	2dd-\	-nad	.
4d-/	.	4dd-/	.	.	.	.	.
4d-/	.	4dd-/	.	.	4dd-\	szczy-	.
=6	=6	=6	=6	=6	=6	=6	=6
4d-/	1.D- 1.A-	4dd-/	1.f 1.cc-	.	2.cc-\	-ta-	.
4d-/	.	4dd-/	.	.	.	.	.
4d-/	.	4dd-/	.	.	.	.	.
4d-/	.	4dd-/	.	.	2.cc-\	-mi	.
4d-/	.	4dd-/	.	.	.	.	.
4d-/	.	4dd-/	.	.	.	.	.
*v	*v	*	*	*	*	*	*
*	*v	*v	*	*	*	*
=7	=7	=7	=7	=7	=7
4G-\ 4B- 4d-	4g-/ 4b- 4dd-	.	2.b-\	noc-	.
4G-\ 4B- 4d-	4g-/ 4b- 4dd-	.	.	.	.
4G-\ 4B- 4d-	4g-/ 4b- 4dd-	.	.	.	.
4G-\ 4B- 4d-	4g-/ 4b- 4dd-	.	2b-\	-ną	.
4G-\ 4B- 4d-	4g-/ 4b- 4dd-	.	.	.	.
4G-\ 4B- 4d-	4g-/ 4b- 4dd-	.	4b-\	czuc	.
!!LO:LB:g=original
=8	=8	=8	=8	=8	=8
!LO:N:n=2:acc=n#	!LO:N:n=3:acc=n#	!	!	!	!LO:HP:a
4An\ 4c#X	4en/ 4an 4cc#X	.	2.an/	ci-	<
4A\ 4c#	4e/ 4a 4cc#	.	.	.	.
4A\ 4c#	4e/ 4a 4cc#	<	.	.	.
4A\ 4c#	4e/ 4a 4cc#	.	2.a/	-szę,	.
4A\ 4c#	4e/ 4a 4cc#	.	.	.	.
4A\ 4c#	4e/ 4a 4cc#	.	.	.	.
=9	=9	=9	=9	=9	=9
!LO:N:n=3:acc=n#	!LO:N:n=3:acc=n#	!	!	!	!
4Gn\ 4An 4c#X	4en/ 4an 4cc#X	.	2.an/	wiatr	.
4G\ 4A 4c#	4e/ 4a 4cc#	.	.	.	.
4G\ 4A 4c#	4e/ 4a 4cc#	.	.	.	.
4G\ 4A 4c#	4e/ 4a 4cc#	.	2bn\	wierz-	[
4G\ 4A 4c#	4e/ 4a 4cc#	.	.	.	.
!	!	!	!LO:N:acc=n#	!	!
4G\ 4A 4c#	4e/ 4a 4cc#	[	4cc#X\	-choł-	.
=10	=10	=10	=10	=10	=10
4F#X\ 4An	4dn/ 4an 4ddn	.	2.ddn\	-ka-	.
4F#\ 4A	4d/ 4a 4dd	.	.	.	.
4F#\ 4A	4d/ 4a 4dd	.	.	.	.
4F#\ 4A	4d/ 4a 4dd	.	2.an/	-mi	.
4F#\ 4A	4d/ 4a 4dd	.	.	.	.
4F#\ 4A	4d/ 4a 4dd	.	.	.	.
=11	=11	=11	=11	=11	=11
!	!	!LO:HP:t=più cresc.:ext=s	!	!	!LO:HP:a
4FFn/ 4Fn	4dn/ 4a-X 4b-X	<	2.b-X\	drzew	<
4FF/ 4F	4d/ 4a- 4b-	.	.	.	.
4FF/ 4F	4d/ 4a- 4b-	.	.	.	.
4FF/ 4F	4d/ 4a- 4b-	.	2ccn\	nie	.
4FF/ 4F	4d/ 4a- 4b-	.	.	.	.
4FF/ 4F	4d/ 4a- 4b-	.	4ddn\	ko-	[
!!LO:PB:g=original
=12	=12	=12	=12	=12	=12
4EE-/ 4E-	4e-/ 4gn 4b- 4ee-	.	2.ee-\	-ły-	.
4EE-/ 4E-	4e-/ 4g 4b- 4ee-	.	.	.	.
4EE-/ 4E-	4e-/ 4g 4b- 4ee-	.	.	.	.
4DD-X/ 4D-X	4en/ 4g 4b- 4een	.	2.een\	-sze,	.
4DD-/ 4D-	4e/ 4g 4b- 4ee	.	.	.	.
4DD-/ 4D-	4e/ 4g 4b- 4ee	.	.	.	.
=13	=13	=13	=13	=13	=13
!	!	!	!	!	!LO:DY:a
4CCn/ 4Cn	4f\ 4an 4ccn 4ff	f	2.ff\	liść	f
4CC/ 4C	4f\ 4a 4cc 4ff	.	.	.	.
4CC/ 4C	4f\ 4a 4cc 4ff	.	.	.	.
4CC/ 4C	4f\ 4a 4cc 4ff	.	2ff\	led-	.
4CC/ 4C	4f\ 4a 4cc 4ff	.	.	.	.
4CC/ 4C	4f\ 4a 4cc 4ff	.	4ff\	-wie	.
=14	=14	=14	=14	=14	=14
!	!	!	!	!	!LO:HP:a
4BBBn/ 4BBn	4f\ 4a-X 4ddn 4ff	>	[2.ff\	drży,	>
4BBB/ 4BB	4f\ 4a- 4dd 4ff	.	.	.	.
4BBB/ 4BB	4f\ 4a- 4dd 4ff	.	.	.	.
4BBB/ 4BB	4f\ 4a- 4dd 4ff	.	2ff\]	.	.
4BBB/ 4BB	4f\ 4a- 4dd 4ff	.	.	.	.
4BBB/ 4BB	4f\ 4a- 4dd 4ff	]	4r	.	]
=15	=15	=15	=15	=15	=15
*^	*	*	*	*	*
!	!	!	!	!LO:TX:a:i:t=sotto voce	!	!LO:DY:a:rj
4BB-X/	1.BBB-X	4B-X/ 4d-X 4f	pp	2.f/	ptasz-	pp
4BB-/	.	4B-/ 4d- 4f	.	.	.	.
4BB-/	.	4B-/ 4d- 4f	.	.	.	.
4BB-/	.	4B-/ 4d- 4f	.	2f/	-ki	.
4BB-/	.	4B-/ 4d- 4f	.	.	.	.
4BB-/	.	4B-/ 4d- 4f	.	4f/	śpią	.
!!LO:LB:g=original
=16	=16	=16	=16	=16	=16	=16
4AAn/	1.AAAn	4cn/ 4e- 4f	.	[2.f/	już....	.
4AA/	.	4c/ 4e- 4f	.	.	.	.
4AA/	.	4c/ 4e- 4f	.	.	.	.
4AA/	.	4c/ 4e- 4f	.	2f/]	.	.
4AA/	.	4c/ 4e- 4f	.	.	.	.
4AA/	.	4c/ 4e- 4f	.	4r	.	.
=17	=17	=17	=17	=17	=17	=17
4BB-/	1.BBB-	4B-/ 4d- 4f	.	2.f/	cze-	.
4BB-/	.	4B-/ 4d- 4f	.	.	.	.
4BB-/	.	4B-/ 4d- 4f	.	.	.	.
4BB-/	.	4B-/ 4d- 4f	.	2f/	-kaj,	.
4BB-/	.	4B-/ 4d- 4f	.	.	.	.
4BB-/	.	4B-/ 4d- 4f	.	4f/	tuż	.
*v	*v	*	*	*	*	*
=18	=18	=18	=18	=18	=18
!	!	!	!	!	!LO:HP:a
4BBB-/ 4BB-	4G-/ 4d- 4g-	.	1.g-	tuż....	<[
4BBB-/ 4BB-	4G-/ 4d- 4g-	.	.	.	.
4BBB-/ 4BB-	4G-/ 4d- 4g-	<	.	.	.
4CC-X/ 4C-X	4G-/ 4e- 4g-	.	.	.	.
4CC-/ 4C-	4G-/ 4e- 4g-	.	.	.	.
4CC-/ 4C-	4G-/ 4e- 4g-	[	.	.	.
=19;<	=19;	=19	=19;	=19	=19
!	!LO:TX:a:i:t=più lento	!	!LO:TX:a:i:t=più lento	!	!
4CCn/ 4Cn	4G-:/ 4e-: 4g-: 4b-:	.	2.b-\	spocz-	.
4CC/ 4C	4e-/ 4g- 4b-	.	.	.	.
4CC/ 4C	4e-/ 4g- 4b-	.	.	.	.
4DD-/ 4D-	4c-X/ 4f 4an	.	2an/	-niesz	.
4DD-/ 4D-	4c-/ 4f 4a	.	.	.	.
4DD-/ 4D-	4c-:/ 4f: 4a: 4dd-:	.	4dd-\	i	.
!!LO:LB:g=original
=20	=20	=20	=20	=20	=20
!	!	!	!	!	!LO:DY:a
1.GG-: 1.D-: 1.B-:	4d-/ 4g- 4b- 4dd-	f	[1.dd-	ty....	f
.	4d-/ 4g- 4b- 4dd-	.	.	.	.
.	4d-/ 4g- 4b- 4dd-	>	.	.	.
.	4d-/ 4g- 4b- 4dd-	.	.	.	.
.	4d-/ 4g- 4b- 4dd-	.	.	.	.
.	4d-/ 4g- 4b- 4dd-	]	.	.	.
=21	=21	=21	=21	=21	=21
!	!	!	!	!	!LO:HP:b
[2.d-\	4dd-\ 4gg- 4bb-	p	1.dd-_	.	>
.	4dd-\ 4gg- 4bb-	<	.	.	.
.	4dd-\ 4gg- 4bb-	.	.	.	.
2.D-\ 2.d-]	4cc-X\ 4ff 4aan	.	.	.	.
.	4cc-\ 4ff 4aa	.	.	.	.
.	4cc-:\ 4ff: 4aa: 4ddd-:	[	.	.	.
=22	=22	=22	=22	=22	=22
N(<8GG-/L	[2.dd-\ [2.gg- [2.bb- [2.ddd-	>	2dd-\]	.	]
8D-/	.	.	.	.	.
8E-/	.	.	.	.	.
8G-/	.	.	.	.	.
8B-/	.	.	4r	.	.
8d-/J	.	.	.	.	.
8e-/L	4dd-\] 4gg-] 4bb-] 4ddd-]	.	2r	.	.
8g-/J	.	.	.	.	.
4r	8b-/L	.	.	.	.
.	8dd-/	]	.	.	.
4r	8ee-/	.	4r	.	.
.	8gg-/J	.	.	.	.
=23	=23	=23	=23	=23	=23
2r	4bb-\N)	.	1.r;	.	.
.	4r	.	.	.	.
4r	4ddd-\	.	.	.	.
*clefG2	*	*	*	*	*
2.g-;\ 2.dd-	2.gg-;\ 2.bb- 2.ddd- 2.ggg-	ppp	.	.	.
==	==	==	==	==	==
*-	*-	*-	*-	*-	*-
!!!system-decoration: s1{(s2,s3)}
!!!RDF**kern: < = below
!!!RDF**kern: > = above
!!!RDF**kern: N = linked
!!!ENC: Anastazja Marusiak
!!!END: 2023-10-19
!!!EED: Marta Chmielewska
!!!EEV: 2023-11-24
